X:27
T:Favourite Quick March,A. WM.027
M:4/4
L:1/8
Q:1/2=100
S:Wm.Mittell’s MS, New Romney,Kent,1799
R:.Reel
O:England
A:Kent
Z:vmp.Chris Partington
K:G
g2dB cAAc|BGGB AFDA|g2dB cAAc|BGAFG2G2:|!
|:(GB).B.B (Ac).c.c|(Bd).d.d gdBG|(GB).B.B (Ac).c.c|BAGFG2G2:|!
|:g2bg fafd|g2bga2f2|g2bg fafd|gdcB”^DC”B2A2:|

